icons/fill-new-location-place.svg

<svg xmlns="http://www.w3.org/2000/svg" width="32px" height="32px" viewBox="0 0 32 32" version="1.1">
    <title>fill-new-location-place</title>
    <g id="fill-new-location-place" stroke-width="1" fill-rule="evenodd">
        <path d="M20.0006751,22.2887971 L20.00052,20.2567528 L20.6262817,20.3487427 C24.9475424,21.0398768 28,22.7163034 28,25 C28,28.0369814 22.6016989,30 16,30 C9.39830112,30 4,28.0369814 4,25 C4,22.6073835 7.35057249,20.8813453 12.0004852,20.2566177 L12.0003208,22.2886489 C8.45923105,22.8154755 6,23.9733164 6,25 C6,26.3812966 10.4514344,28 16,28 C21.5485656,28 26,26.3812966 26,25 C26,23.9734127 23.5412301,22.8156926 20.0006751,22.2887971 Z M16,2 C20.1421356,2 23.5,5.35786438 23.5,9.5 C23.5,13.3041291 20.6677929,16.4467607 16.9969541,16.9343195 L17,17 L17,25 C17,25.5522847 16.5522847,26 16,26 C15.4477153,26 15,25.5522847 15,25 L15,17 L15.0030459,16.9343195 C11.3322071,16.4467607 8.5,13.3041291 8.5,9.5 C8.5,5.35786438 11.8578644,2 16,2 Z" id="&#24418;&#29366;" />
    </g>
</svg>

<svg xmlns="http://www.w3.org/2000/svg" viewBox="0 0 32 32"><path fill="currentColor" d="M20 22.289v-2.032l.626.092C24.948 21.039 28 22.716 28 25c0 3.037-5.398 5-12 5S4 28.037 4 25c0-2.393 3.35-4.119 8-4.743v2.032c-3.54.526-6 1.684-6 2.711 0 1.381 4.451 3 10 3s10-1.619 10-3c0-1.027-2.459-2.184-6-2.711M16 2a7.5 7.5 0 0 1 .997 14.934L17 17v8a1 1 0 0 1-2 0v-8l.003-.066A7.501 7.501 0 0 1 16 2"/></svg>
